assets/svg/car.svg

<?xml version="1.0" encoding="utf-8"?><!-- Uploaded to: SVG Repo, www.svgrepo.com, Generator: SVG Repo Mixer Tools -->
<svg width="800px" height="800px" viewBox="0 0 24 24" fill="none" xmlns="http://www.w3.org/2000/svg">
<path d="M15.51 2.82996H8.49C6 2.82996 5.45 4.06996 5.13 5.58996L4 11H20L18.87 5.58996C18.55 4.06996 18 2.82996 15.51 2.82996Z" stroke="#292D32" stroke-width="1.5" stroke-linecap="round" stroke-linejoin="round"/>
<path d="M21.99 19.82C22.1 20.99 21.16 22 19.96 22H18.08C17 22 16.85 21.54 16.66 20.97L16.46 20.37C16.18 19.55 16 19 14.56 19H9.43998C7.99998 19 7.78998 19.62 7.53998 20.37L7.33998 20.97C7.14998 21.54 6.99998 22 5.91998 22H4.03998C2.83998 22 1.89998 20.99 2.00998 19.82L2.56998 13.73C2.70998 12.23 2.99998 11 5.61998 11H18.38C21 11 21.29 12.23 21.43 13.73L21.99 19.82Z" stroke="#292D32" stroke-width="1.5" stroke-linecap="round" stroke-linejoin="round"/>
<path d="M4 8H3" stroke="#292D32" stroke-width="1.5" stroke-linecap="round" stroke-linejoin="round"/>
<path d="M21 8H20" stroke="#292D32" stroke-width="1.5" stroke-linecap="round" stroke-linejoin="round"/>
<path d="M12 3V5" stroke="#292D32" stroke-width="1.5" stroke-linecap="round" stroke-linejoin="round"/>
<path d="M10.5 5H13.5" stroke="#292D32" stroke-width="1.5" stroke-linecap="round" stroke-linejoin="round"/>
<path d="M6 15H9" stroke="#292D32" stroke-width="1.5" stroke-linecap="round" stroke-linejoin="round"/>
<path d="M15 15H18" stroke="#292D32" stroke-width="1.5" stroke-linecap="round" stroke-linejoin="round"/>
</svg>

<svg xmlns="http://www.w3.org/2000/svg" width="800" height="800" fill="none" viewBox="0 0 24 24">
    <path stroke="#292d32" stroke-linecap="round" stroke-linejoin="round" stroke-width="1.5"
        d="M15.51 2.83H8.49C6 2.83 5.45 4.07 5.13 5.59L4 11h16l-1.13-5.41c-.32-1.52-.87-2.76-3.36-2.76M21.99 19.82c.11 1.17-.83 2.18-2.03 2.18h-1.88c-1.08 0-1.23-.46-1.42-1.03l-.2-.6c-.28-.82-.46-1.37-1.9-1.37H9.44c-1.44 0-1.65.62-1.9 1.37l-.2.6C7.15 21.54 7 22 5.92 22H4.04c-1.2 0-2.14-1.01-2.03-2.18l.56-6.09C2.71 12.23 3 11 5.62 11h12.76c2.62 0 2.91 1.23 3.05 2.73zM4 8H3M21 8h-1M12 3v2M10.5 5h3M6 15h3M15 15h3" />
</svg>
